storage/app/icons/phosphoricons/light/city-light.svg

<svg xmlns="http://www.w3.org/2000/svg" fill="currentColor" viewBox="0 0 256 256"><path d="M240 210h-10V88a6 6 0 0 0-6-6h-64a6 6 0 0 0-6 6v42h-52V40a6 6 0 0 0-6-6H32a6 6 0 0 0-6 6v170H16a6 6 0 0 0 0 12h224a6 6 0 0 0 0-12M166 94h52v116h-52Zm-12 48v68h-52v-68ZM38 46h52v164H38Zm32 26v16a6 6 0 0 1-12 0V72a6 6 0 0 1 12 0m0 48v16a6 6 0 0 1-12 0v-16a6 6 0 0 1 12 0m0 48v16a6 6 0 0 1-12 0v-16a6 6 0 0 1 12 0m52 16v-16a6 6 0 0 1 12 0v16a6 6 0 0 1-12 0m64 0v-16a6 6 0 0 1 12 0v16a6 6 0 0 1-12 0m0-48v-16a6 6 0 0 1 12 0v16a6 6 0 0 1-12 0"/></svg>

<svg xmlns="http://www.w3.org/2000/svg" viewBox="0 0 256 256" fill="currentColor"><path d="M240,210H230V88a6,6,0,0,0-6-6H160a6,6,0,0,0-6,6v42H102V40a6,6,0,0,0-6-6H32a6,6,0,0,0-6,6V210H16a6,6,0,0,0,0,12H240a6,6,0,0,0,0-12ZM166,94h52V210H166Zm-12,48v68H102V142ZM38,46H90V210H38ZM70,72V88a6,6,0,0,1-12,0V72a6,6,0,0,1,12,0Zm0,48v16a6,6,0,0,1-12,0V120a6,6,0,0,1,12,0Zm0,48v16a6,6,0,0,1-12,0V168a6,6,0,0,1,12,0Zm52,16V168a6,6,0,0,1,12,0v16a6,6,0,0,1-12,0Zm64,0V168a6,6,0,0,1,12,0v16a6,6,0,0,1-12,0Zm0-48V120a6,6,0,0,1,12,0v16a6,6,0,0,1-12,0Z"/></svg>
